src/assets/icons/track-next.svg

<svg widh="100%" height="100%" viewBox="0 0 24 24" fill="current"
  xmlns="http://www.w3.org/2000/svg">
  <path d="M18.9231 18.4615H17.0769C16.822 18.4615 16.6154 18.2549 16.6154 18V6.00001C16.6154 5.74511 16.822 5.53847 17.0769 5.53847H18.9231C19.178 5.53847 19.3846 5.74511 19.3846 6.00001V18C19.3846 18.2549 19.178 18.4615 18.9231 18.4615Z" />
  <path d="M4.61539 5.568L14.7406 12.0148L4.61539 18.4615V5.56708V5.568Z" />
</svg>

<svg xmlns="http://www.w3.org/2000/svg" fill="currentColor" viewBox="0 0 24 24">
  <path d="M18.923 18.462h-1.846a.461.461 0 0 1-.462-.462V6c0-.255.207-.462.462-.462h1.846c.255 0 .462.207.462.462v12a.461.461 0 0 1-.462.462ZM4.615 5.568l10.126 6.447-10.126 6.447V5.567v.001Z"/>
</svg>
